packages/design-system/site/assets/images/landing/icon-trust.svg

<?xml version="1.0" encoding="UTF-8" standalone="no"?>
<svg width="99px" height="82px" viewBox="0 0 99 82" version="1.1" xmlns="http://www.w3.org/2000/svg" xmlns:xlink="http://www.w3.org/1999/xlink" xmlns:sketch="http://www.bohemiancoding.com/sketch/ns">
    <!-- Generator: Sketch 3.3.3 (12081) - http://www.bohemiancoding.com/sketch -->
    <title>icon-trust</title>
    <desc>Created with Sketch.</desc>
    <defs></defs>
    <g id="Page-2" stroke="none" stroke-width="1" fill="none" fill-rule="evenodd" sketch:type="MSPage">
        <g id="desktop-1280" sketch:type="MSArtboardGroup" transform="translate(-715.000000, -655.000000)">
            <g id="tiles" sketch:type="MSLayerGroup" transform="translate(344.000000, 609.000000)">
                <g id="trust" transform="translate(300.000000, 0.000000)" sketch:type="MSShapeGroup">
                    <g id="icon-trust" transform="translate(71.000000, 46.000000)">
                        <path d="M25.8948263,53.4819904 C25.8948263,53.4819904 43.7187784,73.6167241 45.9090299,76.4620437 C48.0992814,79.3073632 52.6315449,79.3458188 55.3956407,77.0452212 C58.1601317,74.7446236 59.392,72.6787241 58.8185509,71.268949 C58.8185509,71.268949 61.5727665,71.2967005 64.6087665,68.1972567 C67.6451617,65.0974165 67.6451617,62.5208898 67.6451617,62.5208898 C67.6451617,62.5208898 70.1812216,63.0830555 73.4855689,59.7239372 C76.5191976,56.6399549 76.5191976,54.3274638 76.5191976,54.3274638 C76.5191976,54.3274638 79.5919521,54.8420555 83.053988,50.7027241 C86.5164192,46.5637892 82.5176886,39.5647123 80.3835569,38.1703987 C78.2498204,36.7756886 55.5601677,14.0089253 54.8784311,13.3607301 C54.1966946,12.7125348 51.6830419,10.2111798 49.5275689,11.5174815 C47.3717006,12.8233869 39.1560838,17.4625525 32.3063114,17.502594 C25.4569341,17.5426354 17,17.5513573 17,17.5513573 L17.1561078,50.0168662 C17.1561078,50.0168662 22.7651617,50.1656886 25.8948263,53.4819904 Z" id="Imported-Layers" fill="#FFCA73"></path>
                        <path d="M85.9861469,12.0588235 C83.8291592,12.0588235 81.729551,10.8404804 80.0045265,9.4392451 L72.0271469,2.56089216 C70.3021224,1.16046078 68.2025143,0 66.0459306,0 L46.5279796,0 C44.1131878,0 41.7812327,1.12106863 39.9636735,2.84266667 L29.6692898,11.3352941 C28.8271837,12.023451 28.7815224,13.4186569 29.5767551,14.1699216 L32.6873755,17.1291569 C34.7857714,18.8322647 37.6107061,19.0529412 39.9038694,17.6742157 L49.0235878,12.1950882 C50.2616939,11.4510588 51.7984163,11.6395784 52.8530694,12.6613627 C52.8530694,12.6613627 61.2649502,20.7839853 65.4708906,24.8452965 C70.8616196,30.0506552 81.6430776,40.4613725 81.6430776,40.4613725 C82.3473918,41.143902 82.8367347,42.1198627 82.8367347,43.1436569 L82.8367347,50.5288824 C82.8367347,52.5149706 84.1504041,54.6666667 85.9861469,54.6666667 L95.955649,54.6666667 C97.7909878,54.6666667 99,53.2007157 99,51.2142255 L99,15.0558431 C99,13.068951 97.7909878,12.0588235 95.955649,12.0588235 L85.9861469,12.0588235 Z" id="Fill-2" fill="#EA9924"></path>
                        <path d="M86.0693878,8.03921569 L95.955649,8.03921569 C97.7909878,8.03921569 99,9.04934314 99,11.0362353 L99,51.2142255 C99,53.2007157 97.7909878,54.6666667 95.955649,54.6666667 L85.9861469,54.6666667 C84.1504041,54.6666667 82.8367347,52.5149706 82.8367347,50.5288824 L82.8367347,11.254902 C82.8367347,11.254902 82.7021755,8.03921569 86.0693878,8.03921569" id="Fill-3" fill="#D67B03"></path>
                        <path d="M41.005902,7.63235294 C41.005902,7.63235294 35.8520408,11.5612745 34.9428571,11.9632353 C34.0336735,12.3651961 30.7682241,12.3036181 30.6975098,10.5148926 L38.505249,4.10217286 L41.005902,7.63235294 Z" id="Fill-5" fill="#F6B852"></path>
                        <path d="M17.6773592,16.3654314 C17.4260204,14.5706765 16.0658816,13.6666667 14.3881347,13.6666667 L2.90251837,13.6666667 C1.06717959,13.6666667 0,14.3664804 0,16.3529706 L0,49.6775294 C0,51.6648235 1.06717959,53.0588235 2.90251837,53.0588235 L15.9660735,53.0588235 C16.4768327,53.0588235 17.8680857,52.5061275 17.8369714,50.2961471 L17.6773592,16.3654314" id="Fill-6" fill="#F7B64B"></path>
                        <g id="Imported-Layers" transform="translate(18.000000, 50.000000)" fill="#EA9924">
                            <path d="M1.711475,9.45037838 C0.859775,8.45102703 0.34425,7.14681081 0.34425,5.72064865 C0.34425,2.57643243 2.849625,0.0272432432 5.940225,0.0272432432 C9.0304,0.0272432432 11.535775,2.57643243 11.535775,5.72064865 C11.535775,7.45859459 10.77035,9.01448649 9.5642,10.0588108 L5.940225,13.3305946 L1.711475,9.45037838" id="Fill-1"></path>
                            <path d="M24.7877,30.8397838 C25.840425,31.616 27.16175,32.0250811 28.5583,31.900973 C31.637,31.6272432 33.914575,28.8657297 33.64555,25.7331892 C33.376525,22.6006486 30.6629,20.2832432 27.583775,20.556973 C25.882075,20.7083243 24.4256,21.6198919 23.508025,22.9331892 L20.620575,26.8916757 L24.7877,30.8397838" id="Fill-2"></path>
                            <path d="M9.12645,9.04908108 C10.140075,7.80843243 11.668375,7.01794595 13.377725,7.01794595 C16.429225,7.01794595 18.902725,9.53513514 18.902725,12.64 C18.902725,14.3342703 18.1662,15.8538378 17.000425,16.8843243 L13.56515,20.3796757 L5.23175,12.6819459 L9.12645,9.04908108" id="Fill-3"></path>
                            <path d="M16.5444,15.884973 C17.558025,14.6443243 19.0859,13.8542703 20.795675,13.8542703 C23.84675,13.8542703 26.320675,16.371027 26.320675,19.4758919 C26.320675,21.1701622 25.583725,22.6897297 24.418375,23.7202162 L20.982675,27.2155676 L12.6497,19.5178378 L16.5444,15.884973" id="Fill-4"></path>
                        </g>
                        <path d="M0.0261818182,15.7277551 C0.0261818182,13.7106122 1.08040909,13 2.9385,13 L14.5665,13 C16.2650455,13 17.5909091,13.9179592 18,15.7404082 L18,33 L0,33 L0.0261818182,15.7277551" id="Imported-Layers" fill="#FFD186"></path>
                        <path d="M83,50.7404138 C83,52.7849655 84.3004,55 86.1172,55 L95.9864,55 C97.8032,55 99,53.4908966 99,51.445931 L99,31 L83,31 L83,50.7404138" id="Imported-Layers" fill="#C57000"></path>
                    </g>
                </g>
            </g>
        </g>
    </g>
</svg>

<svg width="99" height="82" xmlns="http://www.w3.org/2000/svg"><g fill="none" fill-rule="evenodd"><path d="M25.895 53.482S43.72 73.617 45.91 76.462c2.19 2.845 6.722 2.884 9.486.583 2.764-2.3 3.996-4.366 3.423-5.776 0 0 2.752.026 5.79-3.074 3.034-3.1 3.034-5.676 3.034-5.676s2.536.563 5.84-2.796c3.034-3.084 3.034-5.397 3.034-5.397s3.072.515 6.534-3.624c3.462-4.14-.536-11.138-2.67-12.533-2.134-1.394-24.824-24.16-25.506-24.81-.68-.647-3.195-3.15-5.35-1.843-2.156 1.306-10.372 5.946-17.222 5.986-6.85.04-15.306.048-15.306.048l.156 32.468s5.61.15 8.74 3.465z" fill="#FFCA73"/><path d="M85.986 12.06c-2.157 0-4.256-1.22-5.98-2.62l-7.98-6.88C70.303 1.16 68.204 0 66.046 0H46.53c-2.415 0-4.747 1.12-6.564 2.843L29.67 11.335c-.843.688-.888 2.084-.093 2.835l3.11 2.96c2.1 1.702 4.924 1.923 7.217.544l9.12-5.48c1.238-.743 2.774-.554 3.83.467 0 0 8.41 8.125 12.617 12.186L81.645 40.46c.704.684 1.194 1.66 1.194 2.684v7.385c0 1.984 1.313 4.136 3.15 4.136h9.97C97.79 54.666 99 53.2 99 51.214V15.056c0-1.987-1.21-2.997-3.044-2.997h-9.97z" fill="#EA9924"/><path d="M86.07 8.04h9.886C97.79 8.04 99 9.05 99 11.035v40.178c0 1.987-1.21 3.453-3.044 3.453h-9.97c-1.836 0-3.15-2.152-3.15-4.138V11.254S82.703 8.04 86.07 8.04" fill="#D67B03"/><path d="M41.006 7.632s-5.154 3.93-6.063 4.33c-.91.403-4.175.342-4.245-1.447l7.807-6.413 2.5 3.53z" fill="#F6B852"/><path d="M17.677 16.365c-.25-1.794-1.61-2.698-3.29-2.698H2.904c-1.836 0-2.903.7-2.903 2.686v33.325c0 1.987 1.068 3.38 2.904 3.38h13.063c.51 0 1.902-.552 1.87-2.762l-.16-33.93" fill="#F7B64B"/><g fill="#EA9924"><path d="M19.71 59.45c-.85-1-1.366-2.303-1.366-3.73 0-3.144 2.506-5.693 5.596-5.693 3.09 0 5.596 2.55 5.596 5.694 0 1.74-.766 3.295-1.972 4.34l-3.624 3.27-4.23-3.88m23.078 21.39c1.052.776 2.374 1.185 3.77 1.06 3.08-.273 5.357-3.034 5.088-6.167-.27-3.132-2.983-5.45-6.062-5.176-1.702.15-3.158 1.063-4.076 2.376l-2.887 3.96 4.17 3.947"/><path d="M27.126 59.05c1.014-1.242 2.542-2.032 4.252-2.032 3.05 0 5.525 2.517 5.525 5.622 0 1.694-.737 3.214-1.903 4.244l-3.435 3.496-8.333-7.698 3.894-3.633"/><path d="M34.544 65.885c1.014-1.24 2.542-2.03 4.252-2.03 3.05 0 5.525 2.516 5.525 5.62 0 1.695-.735 3.215-1.9 4.245l-3.436 3.496-8.333-7.698 3.895-3.633"/></g><path d="M.026 15.728C.026 13.71 1.08 13 2.94 13h11.627c1.698 0 3.024.918 3.433 2.74V33H0l.026-17.272" fill="#FFD186"/><path d="M83 50.74c0 2.045 1.3 4.26 3.117 4.26h9.87C97.802 55 99 53.49 99 51.446V31H83v19.74" fill="#C57000"/></g></svg>
